X:1
T: Hvem Kan Segle Ulan Vind
I:
C: W-8
M: 3/4
Z:
R: waltz
K: Am
"Am"A4 B2| c2 B2 A2| e4 e2| e6| "Dm"d4 e2| f2 e2 d2| "Am"a6| e6|
"Dm"d4 e2| f2 e2 d2| "Am"c4 c2| A6| "E7"B4 B2| E2 ^F2 ^G2| "Am"A6-| A6|]
%
